src/assets/beer-pint-icon.svg

<svg width="64" height="64" viewBox="0 0 64 64" fill="none" xmlns="http://www.w3.org/2000/svg">
<path d="M14.0468 21.9993C13.8032 21.9996 13.5688 21.9181 13.3917 21.7717C13.2147 21.6252 13.1086 21.4248 13.0952 21.2119C13.0343 20.1279 13 18.9914 13 17.8332C13 17.6122 13.1003 17.4003 13.2787 17.244C13.4572 17.0878 13.6993 17 13.9517 17C14.204 17 14.4461 17.0878 14.6246 17.244C14.803 17.4003 14.9033 17.6122 14.9033 17.8332C14.9033 18.9614 14.9366 20.0671 14.9985 21.1202C15.0128 21.3408 14.9265 21.5572 14.7585 21.7221C14.5906 21.8869 14.3548 21.9866 14.103 21.9993C14.0843 22.0002 14.0655 22.0002 14.0468 21.9993Z" fill="#EFEFEF"/>
<path d="M40.9531 21.9994C40.9357 22.0002 40.9182 22.0002 40.9008 21.9994C40.7759 21.9935 40.6536 21.9662 40.5408 21.9189C40.428 21.8716 40.3269 21.8053 40.2434 21.7238C40.1599 21.6423 40.0955 21.5471 40.054 21.4438C40.0125 21.3405 39.9946 21.231 40.0014 21.1217C40.0671 20.0681 40.0966 18.9621 40.0966 17.8335C40.0966 17.6124 40.1968 17.4004 40.3753 17.2441C40.5538 17.0878 40.7959 17 41.0483 17C41.3007 17 41.5428 17.0878 41.7213 17.2441C41.8997 17.4004 42 17.6124 42 17.8335C42 18.9921 41.9657 20.129 41.8991 21.2134C41.8853 21.4252 41.7798 21.6245 41.604 21.7706C41.4282 21.9166 41.1954 21.9984 40.9531 21.9994Z" fill="#EFEFEF"/>
<path d="M41.9938 25.0024C42.0087 24.8766 41.9967 24.7491 41.9585 24.6282C41.9204 24.5073 41.857 24.3959 41.7726 24.3012C41.6881 24.2065 41.5845 24.1307 41.4686 24.0788C41.3526 24.0269 41.227 24 41.0998 24H37.903C37.8584 24.3088 37.7736 24.6105 37.6509 24.8974C37.4685 25.2137 37.1934 25.4669 36.8626 25.6229C36.5318 25.779 36.161 25.8305 35.8 25.7706C35.543 25.7254 35.2994 25.6235 35.0869 25.4724C34.8745 25.3214 34.6985 25.1249 34.572 24.8974C34.4408 24.6122 34.3499 24.3101 34.3019 24H14.9002C14.773 24 14.6474 24.0269 14.5314 24.0788C14.4155 24.1307 14.3119 24.2065 14.2274 24.3012C14.143 24.3959 14.0796 24.5073 14.0415 24.6282C14.0033 24.7491 13.9913 24.8766 14.0062 25.0024C14.4802 28.9509 15.4138 32.8309 16.788 36.5641C17.1373 36.5641 17.447 36.556 17.7315 36.5381L17.7369 36.5641H22.1482C22.7452 36.5641 23.3176 36.8005 23.7397 37.2212C24.1618 37.642 24.3989 38.2127 24.3989 38.8077C24.3989 39.4027 24.1618 39.9734 23.7397 40.3942C23.3176 40.8149 22.7452 41.0513 22.1482 41.0513C22.7452 41.0513 23.3176 41.2877 23.7397 41.7084C24.1618 42.1292 24.3989 42.6998 24.3989 43.2949C24.3989 43.8899 24.1618 44.4606 23.7397 44.8813C23.3176 45.3021 22.7452 45.5385 22.1482 45.5385C22.7452 45.5385 23.3176 45.7748 23.7397 46.1956C24.1618 46.6163 24.3989 47.187 24.3989 47.7821C24.3989 48.3771 24.1618 48.9478 23.7397 49.3685C23.3176 49.7893 22.7452 50.0256 22.1482 50.0256H21.0679C20.6284 49.8603 20.1435 49.8603 19.704 50.0256H19.6698V50.0346C19.3667 50.1206 19.0568 50.1806 18.7434 50.2141C18.5491 52.056 18.2413 53.8843 17.8215 55.6885C17.7279 56.0836 17.725 56.4947 17.8133 56.8911C17.9016 57.2875 18.0786 57.6588 18.3312 57.9773C18.5838 58.2958 18.9054 58.5533 19.2719 58.7304C19.6384 58.9075 20.0403 58.9997 20.4476 59H35.5524C35.9594 58.9999 36.3612 58.9081 36.7276 58.7314C37.0941 58.5547 37.4157 58.2978 37.6685 57.9798C37.9213 57.6617 38.0987 57.2909 38.1875 56.8949C38.2763 56.4989 38.2741 56.088 38.1812 55.6929C37.4031 52.3636 37.0078 48.9569 37.0027 45.5385C37.0027 42.8228 37.8319 40.476 38.7925 37.7595C38.8238 37.6658 38.839 37.5675 38.8375 37.4687C38.5396 37.4825 38.2411 37.4802 37.9435 37.4615H33.4016C32.6853 37.4615 31.9984 37.1779 31.4919 36.673C30.9854 36.1681 30.7008 35.4833 30.7008 34.7692C30.7008 34.0552 30.9854 33.3704 31.4919 32.8655C31.9984 32.3606 32.6853 32.0769 33.4016 32.0769H39.6918C39.6972 32.0563 39.7026 32.0338 39.708 32.0141C39.9835 32.0464 40.2833 32.0635 40.6227 32.0697C41.2542 29.751 41.7125 27.3887 41.9938 25.0024Z" fill="#F2C247"/>
<path d="M15.9052 13C15.7803 13.0003 15.6568 12.9749 15.5426 12.9253C15.3226 12.8308 15.1499 12.6545 15.0623 12.4352C14.9748 12.2158 14.9796 11.9714 15.0757 11.7556C15.4988 10.8052 16.1952 9.9963 17.0797 9.42796C17.9643 8.85962 18.9987 8.55646 20.0562 8.55558C20.5407 8.55568 21.0228 8.6221 21.4886 8.75291C21.9201 7.77158 22.6026 6.916 23.4699 6.26883C24.3373 5.62166 25.3602 5.20478 26.4398 5.05849C27.5195 4.9122 28.6194 5.04143 29.6332 5.43371C30.647 5.82598 31.5405 6.46803 32.2274 7.29781C32.9555 6.95504 33.753 6.77732 34.5608 6.77782C36.0029 6.77923 37.3856 7.34158 38.4053 8.34146C39.425 9.34134 39.9986 10.6971 40 12.1111C40 12.3469 39.9045 12.5729 39.7345 12.7396C39.5645 12.9063 39.3339 13 39.0935 13C38.853 13 38.6225 12.9063 38.4524 12.7396C38.2824 12.5729 38.1869 12.3469 38.1869 12.1111C38.1884 11.4606 38.0074 10.8221 37.6637 10.2657C37.32 9.70922 36.8268 9.25614 36.2382 8.956C35.6496 8.65585 34.9881 8.52019 34.3261 8.56385C33.6641 8.60752 33.0272 8.82883 32.4848 9.20358C32.3832 9.27358 32.268 9.32235 32.1463 9.34688C32.0247 9.3714 31.8992 9.37116 31.7776 9.34615C31.6561 9.32115 31.5411 9.27192 31.4397 9.20152C31.3384 9.13112 31.2529 9.04106 31.1885 8.93691C30.7289 8.18464 30.0523 7.58279 29.244 7.20738C28.4358 6.83196 27.5323 6.69983 26.6475 6.82766C25.7627 6.9555 24.9364 7.33757 24.273 7.92561C23.6096 8.51365 23.1387 9.28129 22.92 10.1316C22.8868 10.2598 22.8249 10.3792 22.7387 10.481C22.6525 10.5828 22.5442 10.6645 22.4217 10.72C22.2992 10.7755 22.1656 10.8035 22.0307 10.802C21.8958 10.8005 21.7629 10.7694 21.6418 10.7111C21.2038 10.5007 20.727 10.3792 20.24 10.3539C19.753 10.3286 19.2658 10.4001 18.8077 10.5641C18.3495 10.7281 17.9299 10.9811 17.574 11.3081C17.2181 11.635 16.9332 12.0291 16.7365 12.4667C16.6659 12.6252 16.5497 12.7602 16.402 12.8549C16.2543 12.9497 16.0817 13.0001 15.9052 13Z" fill="#EFEFEF"/>
<path d="M41.1667 18C40.9457 18 40.7337 17.921 40.5774 17.7803C40.4211 17.6397 40.3333 17.4489 40.3333 17.25C40.3333 17.0511 40.2455 16.8603 40.0893 16.7197C39.933 16.579 39.721 16.5 39.5 16.5H39.3583C39.175 16.5002 38.9992 16.5658 38.8695 16.6825C38.7398 16.7992 38.6669 16.9575 38.6667 17.1225C38.6667 17.3214 38.5789 17.5122 38.4226 17.6528C38.2663 17.7935 38.0543 17.8725 37.8333 17.8725C37.6123 17.8725 37.4004 17.7935 37.2441 17.6528C37.0878 17.5122 37 17.3214 37 17.1225C37.0009 16.5598 37.2496 16.0204 37.6917 15.6225C38.1338 15.2247 38.7331 15.0008 39.3583 15H39.5C40.163 15 40.7989 15.2371 41.2678 15.659C41.7366 16.081 42 16.6533 42 17.25C42 17.4489 41.9122 17.6397 41.7559 17.7803C41.5996 17.921 41.3877 18 41.1667 18Z" fill="#EFEFEF"/>
<path d="M27.6667 21C27.6016 21 27.5356 21 27.4696 21C26.5116 20.9334 25.6175 20.5255 24.9719 19.8604C24.3262 19.1953 23.9783 18.3237 24 17.4257C23.9998 17.2371 23.9195 17.0563 23.7769 16.9229C23.6343 16.7895 23.4409 16.7145 23.2392 16.7143H15.75C15.5069 16.7143 15.2737 16.8046 15.1018 16.9653C14.9299 17.1261 14.8333 17.3441 14.8333 17.5714C14.8333 17.7987 14.7368 18.0168 14.5648 18.1775C14.3929 18.3383 14.1598 18.4286 13.9167 18.4286C13.6736 18.4286 13.4404 18.3383 13.2685 18.1775C13.0966 18.0168 13 17.7987 13 17.5714C13 16.8894 13.2897 16.2354 13.8055 15.7532C14.3212 15.2709 15.0207 15 15.75 15H23.2392C23.9269 15.0009 24.5862 15.2568 25.0724 15.7115C25.5587 16.1662 25.8324 16.7826 25.8333 17.4257C25.8185 17.8829 25.9888 18.3285 26.3102 18.6733C26.6316 19.0182 27.0804 19.2369 27.5668 19.2857C27.8158 19.2984 28.065 19.2635 28.2991 19.183C28.5332 19.1026 28.7472 18.9783 28.9282 18.8179C29.1092 18.6574 29.2532 18.4641 29.3515 18.2498C29.4499 18.0355 29.5004 17.8046 29.5 17.5714C29.5 16.8894 29.7897 16.2354 30.3055 15.7532C30.8212 15.2709 31.5207 15 32.25 15C32.9793 15 33.6788 15.2709 34.1945 15.7532C34.7103 16.2354 35 16.8894 35 17.5714C35 17.7987 34.9034 18.0168 34.7315 18.1775C34.5596 18.3383 34.3264 18.4286 34.0833 18.4286C33.8402 18.4286 33.6071 18.3383 33.4352 18.1775C33.2632 18.0168 33.1667 17.7987 33.1667 17.5714C33.1667 17.3441 33.0701 17.1261 32.8982 16.9653C32.7263 16.8046 32.4931 16.7143 32.25 16.7143C32.0069 16.7143 31.7737 16.8046 31.6018 16.9653C31.4299 17.1261 31.3333 17.3441 31.3333 17.5714C31.3323 18.0364 31.2306 18.4964 31.0343 18.9236C30.838 19.3508 30.5512 19.7364 30.1912 20.0571C29.5116 20.6647 28.6069 21.0026 27.6667 21Z" fill="#EFEFEF"/>
<path d="M21.7917 42H17.2083C16.3574 42 15.5414 41.6839 14.9397 41.1213C14.338 40.5587 14 39.7956 14 39C14 38.2044 14.338 37.4413 14.9397 36.8787C15.5414 36.3161 16.3574 36 17.2083 36H21.7917C22.6426 36 23.4586 36.3161 24.0603 36.8787C24.662 37.4413 25 38.2044 25 39C25 39.7956 24.662 40.5587 24.0603 41.1213C23.4586 41.6839 22.6426 42 21.7917 42ZM17.2083 37.7143C16.8437 37.7143 16.4939 37.8497 16.2361 38.0909C15.9782 38.332 15.8333 38.659 15.8333 39C15.8333 39.341 15.9782 39.668 16.2361 39.9091C16.4939 40.1503 16.8437 40.2857 17.2083 40.2857H21.7917C22.1563 40.2857 22.5061 40.1503 22.7639 39.9091C23.0218 39.668 23.1667 39.341 23.1667 39C23.1667 38.659 23.0218 38.332 22.7639 38.0909C22.5061 37.8497 22.1563 37.7143 21.7917 37.7143H17.2083Z" fill="#EFEFEF"/>
<path d="M21.7917 46H17.2083C16.3574 46 15.5414 45.6839 14.9397 45.1213C14.338 44.5587 14 43.7956 14 43C14 42.2044 14.338 41.4413 14.9397 40.8787C15.5414 40.3161 16.3574 40 17.2083 40H21.7917C22.6426 40 23.4586 40.3161 24.0603 40.8787C24.662 41.4413 25 42.2044 25 43C25 43.7956 24.662 44.5587 24.0603 45.1213C23.4586 45.6839 22.6426 46 21.7917 46ZM17.2083 41.7143C16.8437 41.7143 16.4939 41.8497 16.2361 42.0909C15.9782 42.332 15.8333 42.659 15.8333 43C15.8333 43.341 15.9782 43.668 16.2361 43.9091C16.4939 44.1503 16.8437 44.2857 17.2083 44.2857H21.7917C22.1563 44.2857 22.5061 44.1503 22.7639 43.9091C23.0218 43.668 23.1667 43.341 23.1667 43C23.1667 42.659 23.0218 42.332 22.7639 42.0909C22.5061 41.8497 22.1563 41.7143 21.7917 41.7143H17.2083Z" fill="#EFEFEF"/>
<path d="M21.7917 51H17.2083C16.3574 51 15.5414 50.6839 14.9397 50.1213C14.338 49.5587 14 48.7956 14 48C14 47.2044 14.338 46.4413 14.9397 45.8787C15.5414 45.3161 16.3574 45 17.2083 45H21.7917C22.6426 45 23.4586 45.3161 24.0603 45.8787C24.662 46.4413 25 47.2044 25 48C25 48.7956 24.662 49.5587 24.0603 50.1213C23.4586 50.6839 22.6426 51 21.7917 51ZM17.2083 46.7143C16.8437 46.7143 16.4939 46.8497 16.2361 47.0909C15.9782 47.332 15.8333 47.659 15.8333 48C15.8333 48.341 15.9782 48.668 16.2361 48.9091C16.4939 49.1503 16.8437 49.2857 17.2083 49.2857H21.7917C22.1563 49.2857 22.5061 49.1503 22.7639 48.9091C23.0218 48.668 23.1667 48.341 23.1667 48C23.1667 47.659 23.0218 47.332 22.7639 47.0909C22.5061 46.8497 22.1563 46.7143 21.7917 46.7143H17.2083Z" fill="#EFEFEF"/>
<path d="M39.1538 38H32.6923C31.713 38 30.7739 37.6313 30.0815 36.9749C29.389 36.3185 29 35.4283 29 34.5C29 33.5717 29.389 32.6815 30.0815 32.0251C30.7739 31.3687 31.713 31 32.6923 31H40.0769C40.3217 31 40.5565 31.0922 40.7296 31.2563C40.9027 31.4204 41 31.6429 41 31.875C41 32.1071 40.9027 32.3296 40.7296 32.4937C40.5565 32.6578 40.3217 32.75 40.0769 32.75H32.6923C32.2027 32.75 31.7331 32.9344 31.3869 33.2626C31.0407 33.5908 30.8462 34.0359 30.8462 34.5C30.8462 34.9641 31.0407 35.4092 31.3869 35.7374C31.7331 36.0656 32.2027 36.25 32.6923 36.25H39.1538C39.3987 36.25 39.6335 36.3422 39.8066 36.5063C39.9797 36.6704 40.0769 36.8929 40.0769 37.125C40.0769 37.3571 39.9797 37.5796 39.8066 37.7437C39.6335 37.9078 39.3987 38 39.1538 38Z" fill="#EFEFEF"/>
<path d="M51.0714 36H44.5714C44.3252 36 44.089 35.9122 43.9148 35.7559C43.7407 35.5996 43.6429 35.3877 43.6429 35.1667C43.6429 34.5036 43.3494 33.8677 42.8269 33.3989C42.3045 32.9301 41.596 32.6667 40.8571 32.6667H39.9286C39.6823 32.6667 39.4461 32.5789 39.272 32.4226C39.0978 32.2663 39 32.0543 39 31.8333C39 31.6123 39.0978 31.4004 39.272 31.2441C39.4461 31.0878 39.6823 31 39.9286 31H40.8571C41.9271 31.0011 42.9639 31.3332 43.7928 31.9404C44.6216 32.5476 45.1918 33.3928 45.4071 34.3333H51.0714C51.3177 34.3333 51.5539 34.4211 51.728 34.5774C51.9022 34.7337 52 34.9457 52 35.1667C52 35.3877 51.9022 35.5996 51.728 35.7559C51.5539 35.9122 51.3177 36 51.0714 36Z" fill="#EFEFEF"/>
<path d="M40.8571 53H39.9286C39.6823 53 39.4461 52.8946 39.272 52.7071C39.0978 52.5196 39 52.2652 39 52C39 51.7348 39.0978 51.4804 39.272 51.2929C39.4461 51.1054 39.6823 51 39.9286 51H40.8571C41.596 51 42.3045 50.6839 42.8269 50.1213C43.3494 49.5587 43.6429 48.7956 43.6429 48C43.6429 47.7348 43.7407 47.4804 43.9148 47.2929C44.089 47.1054 44.3252 47 44.5714 47H51.0714C51.3177 47 51.5539 47.1054 51.728 47.2929C51.9022 47.4804 52 47.7348 52 48C52 48.2652 51.9022 48.5196 51.728 48.7071C51.5539 48.8946 51.3177 49 51.0714 49H45.4071C45.1918 50.1287 44.6216 51.1428 43.7928 51.8715C42.9639 52.6002 41.9271 52.9987 40.8571 53Z" fill="#EFEFEF"/>
<path d="M35.5001 27C35.3625 26.9996 35.2251 26.9877 35.0893 26.9642C34.4964 26.8429 33.9621 26.5013 33.5802 25.9993C33.1982 25.4973 32.9929 24.8668 33.0002 24.2184V18.0474C33.0002 17.81 33.088 17.5823 33.2443 17.4144C33.4005 17.2465 33.6125 17.1522 33.8335 17.1522C34.0545 17.1522 34.2665 17.2465 34.4227 17.4144C34.579 17.5823 34.6668 17.81 34.6668 18.0474V24.2184C34.6591 24.4415 34.7233 24.6606 34.8486 24.8387C34.9738 25.0168 35.1524 25.143 35.3543 25.1961C35.4742 25.219 35.5973 25.2133 35.715 25.1796C35.8327 25.1458 35.9421 25.0848 36.0354 25.0007C36.1288 24.9166 36.2038 24.8116 36.2553 24.693C36.3068 24.5744 36.3334 24.4451 36.3334 24.3142V17.8953C36.3334 17.6578 36.4212 17.4301 36.5775 17.2622C36.7337 17.0943 36.9457 17 37.1667 17C37.3877 17 37.5997 17.0943 37.7559 17.2622C37.9122 17.4301 38 17.6578 38 17.8953V24.3142C38 25.0265 37.7366 25.7097 37.2678 26.2134C36.799 26.717 36.1631 27 35.5001 27Z" fill="#EFEFEF"/>
</svg>

<svg xmlns="http://www.w3.org/2000/svg" width="64" height="64" fill="none" viewBox="0 0 64 64">
    <path fill="#EFEFEF" d="M14.047 22a1.03 1.03 0 0 1-.655-.228.794.794 0 0 1-.297-.56A60.477 60.477 0 0 1 13 17.833c0-.22.1-.433.279-.589.178-.156.42-.244.673-.244.252 0 .494.088.673.244a.785.785 0 0 1 .278.59c0 1.127.034 2.233.095 3.286a.772.772 0 0 1-.24.602 1.01 1.01 0 0 1-.711.277ZM40.953 22a1.062 1.062 0 0 1-.412-.08.952.952 0 0 1-.298-.196.82.82 0 0 1-.189-.28.74.74 0 0 1-.053-.322c.066-1.054.096-2.16.096-3.288 0-.222.1-.434.278-.59.179-.156.42-.244.673-.244.253 0 .495.088.673.244a.785.785 0 0 1 .279.59c0 1.158-.034 2.295-.1 3.38a.794.794 0 0 1-.296.557 1.028 1.028 0 0 1-.65.228Z"/>
    <path fill="#F2C247" d="M41.994 25.002a.893.893 0 0 0-.525-.923.903.903 0 0 0-.37-.079h-3.196c-.045.309-.13.61-.252.897a1.792 1.792 0 0 1-1.851.874 1.755 1.755 0 0 1-1.228-.874 3.387 3.387 0 0 1-.27-.897H14.9a.903.903 0 0 0-.859.628.893.893 0 0 0-.035.374 51.1 51.1 0 0 0 2.782 11.562c.35 0 .659-.008.944-.026l.005.026h4.411c.597 0 1.17.236 1.592.657a2.24 2.24 0 0 1 0 3.173c-.422.42-.995.657-1.592.657.597 0 1.17.237 1.592.657a2.24 2.24 0 0 1 0 3.173c-.422.421-.995.657-1.592.657.597 0 1.17.237 1.592.658a2.24 2.24 0 0 1 0 3.172c-.422.421-.995.658-1.592.658h-1.08a1.938 1.938 0 0 0-1.364 0h-.034v.009a5.558 5.558 0 0 1-.927.18 44.976 44.976 0 0 1-.921 5.473 2.684 2.684 0 0 0 1.45 3.042c.366.178.768.27 1.176.27h15.104a2.707 2.707 0 0 0 2.117-1.02 2.69 2.69 0 0 0 .512-2.287 44.912 44.912 0 0 1-1.178-10.154c0-2.716.829-5.063 1.79-7.78a.876.876 0 0 0 .044-.29 8.204 8.204 0 0 1-.894-.008h-4.541a2.705 2.705 0 0 1-1.91-.788 2.688 2.688 0 0 1 0-3.808 2.705 2.705 0 0 1 1.91-.788h6.29l.016-.063c.276.032.575.05.915.056a48.503 48.503 0 0 0 1.37-7.068Z"/>
    <path fill="#EFEFEF" d="M15.905 13a.905.905 0 0 1-.843-.565.873.873 0 0 1 .014-.68 5.363 5.363 0 0 1 2.004-2.327 5.517 5.517 0 0 1 2.976-.872c.485 0 .967.066 1.433.197a6.232 6.232 0 0 1 1.98-2.484 6.405 6.405 0 0 1 2.97-1.21 6.453 6.453 0 0 1 3.194.375 6.332 6.332 0 0 1 2.594 1.864 5.5 5.5 0 0 1 6.178 1.044A5.287 5.287 0 0 1 40 12.111a.88.88 0 0 1-.266.628.916.916 0 0 1-1.282 0 .88.88 0 0 1-.265-.629 3.495 3.495 0 0 0-.523-1.845 3.59 3.59 0 0 0-1.426-1.31 3.678 3.678 0 0 0-3.753.248.915.915 0 0 1-.707.142.916.916 0 0 1-.59-.41 4.494 4.494 0 0 0-1.944-1.729 4.605 4.605 0 0 0-2.596-.38 4.563 4.563 0 0 0-2.375 1.099 4.421 4.421 0 0 0-1.353 2.206.884.884 0 0 1-.498.588.923.923 0 0 1-.78-.009 3.679 3.679 0 0 0-4.068.597 3.55 3.55 0 0 0-.838 1.159.894.894 0 0 1-.334.388.919.919 0 0 1-.497.145ZM41.167 18a.883.883 0 0 1-.59-.22.714.714 0 0 1-.244-.53.714.714 0 0 0-.244-.53.883.883 0 0 0-.589-.22h-.142a.733.733 0 0 0-.488.183.593.593 0 0 0-.203.44c0 .198-.088.39-.244.53a.883.883 0 0 1-.59.22.882.882 0 0 1-.589-.22.714.714 0 0 1-.244-.53c0-.563.25-1.103.692-1.5A2.501 2.501 0 0 1 39.358 15h.142c.663 0 1.299.237 1.768.659.469.422.732.994.732 1.591 0 .199-.088.39-.244.53a.882.882 0 0 1-.59.22ZM27.667 21h-.197a3.853 3.853 0 0 1-2.498-1.14A3.376 3.376 0 0 1 24 17.426a.69.69 0 0 0-.223-.503.789.789 0 0 0-.538-.209H15.75a.95.95 0 0 0-.648.251.83.83 0 0 0-.269.606.83.83 0 0 1-.268.606.95.95 0 0 1-.648.252.95.95 0 0 1-.649-.252.83.83 0 0 1-.268-.606c0-.682.29-1.336.806-1.818A2.85 2.85 0 0 1 15.75 15h7.49c.687 0 1.346.257 1.832.711.487.455.76 1.072.761 1.715-.014.457.156.902.477 1.247.322.345.77.564 1.257.613a1.95 1.95 0 0 0 .732-.103c.234-.08.448-.205.63-.365.18-.16.324-.354.423-.568.098-.215.148-.445.148-.679 0-.682.29-1.336.805-1.818A2.85 2.85 0 0 1 32.25 15c.73 0 1.429.27 1.944.753A2.49 2.49 0 0 1 35 17.571a.83.83 0 0 1-.269.606.95.95 0 0 1-.648.252.95.95 0 0 1-.648-.252.83.83 0 0 1-.268-.606.83.83 0 0 0-.269-.606.95.95 0 0 0-.648-.25.95.95 0 0 0-.648.25.83.83 0 0 0-.269.606 3.252 3.252 0 0 1-.299 1.353 3.45 3.45 0 0 1-.843 1.133 3.776 3.776 0 0 1-2.524.943ZM21.792 42h-4.584c-.85 0-1.667-.316-2.268-.879A2.905 2.905 0 0 1 14 39c0-.796.338-1.559.94-2.121A3.325 3.325 0 0 1 17.208 36h4.584c.85 0 1.667.316 2.268.879.602.562.94 1.325.94 2.121s-.338 1.559-.94 2.121a3.325 3.325 0 0 1-2.268.879Zm-4.584-4.286c-.364 0-.714.136-.972.377a1.245 1.245 0 0 0-.403.909c0 .341.145.668.403.91.258.24.608.376.972.376h4.584c.364 0 .714-.136.972-.377s.403-.568.403-.909c0-.341-.145-.668-.403-.91a1.424 1.424 0 0 0-.972-.376h-4.584Z"/>
    <path fill="#EFEFEF" d="M21.792 46h-4.584c-.85 0-1.667-.316-2.268-.879A2.905 2.905 0 0 1 14 43c0-.796.338-1.559.94-2.121A3.325 3.325 0 0 1 17.208 40h4.584c.85 0 1.667.316 2.268.879.602.562.94 1.325.94 2.121s-.338 1.559-.94 2.121a3.325 3.325 0 0 1-2.268.879Zm-4.584-4.286c-.364 0-.714.136-.972.377a1.245 1.245 0 0 0-.403.909c0 .341.145.668.403.91.258.24.608.376.972.376h4.584c.364 0 .714-.136.972-.377s.403-.568.403-.909c0-.341-.145-.668-.403-.91a1.424 1.424 0 0 0-.972-.376h-4.584Z"/>
    <path fill="#EFEFEF" d="M21.792 51h-4.584c-.85 0-1.667-.316-2.268-.879A2.905 2.905 0 0 1 14 48c0-.796.338-1.559.94-2.121A3.325 3.325 0 0 1 17.208 45h4.584c.85 0 1.667.316 2.268.879.602.562.94 1.325.94 2.121s-.338 1.559-.94 2.121a3.325 3.325 0 0 1-2.268.879Zm-4.584-4.286c-.364 0-.714.136-.972.377a1.245 1.245 0 0 0-.403.909c0 .341.145.668.403.91.258.24.608.376.972.376h4.584c.364 0 .714-.136.972-.377s.403-.568.403-.909c0-.341-.145-.668-.403-.91a1.424 1.424 0 0 0-.972-.376h-4.584ZM39.154 38h-6.462c-.979 0-1.918-.369-2.61-1.025A3.41 3.41 0 0 1 29 34.5a3.41 3.41 0 0 1 1.081-2.475A3.797 3.797 0 0 1 32.692 31h7.385a.95.95 0 0 1 .653.256c.173.164.27.387.27.619a.853.853 0 0 1-.27.619.95.95 0 0 1-.653.256h-7.385c-.49 0-.959.184-1.305.513-.346.328-.54.773-.54 1.237 0 .464.194.91.54 1.237.346.329.816.513 1.305.513h6.462a.95.95 0 0 1 .653.256c.173.164.27.387.27.619a.852.852 0 0 1-.27.619.95.95 0 0 1-.653.256Z"/>
    <path fill="#EFEFEF" d="M51.071 36h-6.5a.985.985 0 0 1-.656-.244.792.792 0 0 1-.272-.59c0-.662-.294-1.298-.816-1.767a2.955 2.955 0 0 0-1.97-.732h-.928a.985.985 0 0 1-.657-.244.792.792 0 0 1-.272-.59c0-.22.098-.433.272-.589a.985.985 0 0 1 .657-.244h.928a4.989 4.989 0 0 1 2.936.94c.829.608 1.399 1.453 1.614 2.393h5.664c.247 0 .483.088.657.244a.792.792 0 0 1 .272.59.792.792 0 0 1-.272.589.985.985 0 0 1-.657.244ZM40.857 53h-.928a.896.896 0 0 1-.657-.293A1.04 1.04 0 0 1 39 52c0-.265.098-.52.272-.707a.896.896 0 0 1 .657-.293h.928c.739 0 1.447-.316 1.97-.879A3.12 3.12 0 0 0 43.643 48c0-.265.098-.52.272-.707A.897.897 0 0 1 44.57 47h6.5c.247 0 .483.105.657.293.174.187.272.442.272.707 0 .265-.098.52-.272.707a.896.896 0 0 1-.657.293h-5.664a5.086 5.086 0 0 1-1.614 2.871A4.45 4.45 0 0 1 40.857 53ZM35.5 27a2.45 2.45 0 0 1-.41-.036A2.543 2.543 0 0 1 33.58 26a2.892 2.892 0 0 1-.58-1.78v-6.172a.93.93 0 0 1 .244-.633.805.805 0 0 1 .59-.262c.22 0 .432.095.589.262a.93.93 0 0 1 .244.633v6.171c-.008.224.056.443.182.62a.9.9 0 0 0 .505.358c.12.023.243.017.361-.016a.815.815 0 0 0 .32-.18.89.89 0 0 0 .22-.307.952.952 0 0 0 .078-.379v-6.419a.93.93 0 0 1 .245-.633.805.805 0 0 1 .589-.262c.22 0 .433.094.589.262a.93.93 0 0 1 .244.633v6.42a2.79 2.79 0 0 1-.732 1.898A2.416 2.416 0 0 1 35.5 27Z"/>
</svg>
